X:1
T:Title
%%score { ( 1 4 ) | ( 2 3 ) }
L:1/8
Q:1/4=100
M:4/4
K:G
V:1 treble nm="Grand Piano"
V:4 treble 
V:2 bass 
V:3 bass 
V:1
 [DB]3 [B,D] [CE][CG][CA][CG] | [B,DB]4 [B,G]2 z2 | [EG]3 [CE] [EG][EG][G,C][G,CE] | [B,D]6 z2 | %4
w: Will~L.~Thompson * * * * *||||
 [Ac]3 [^GB] [Ac][_B^c][=ce][B^c] | [Bd]4 [GB]2 z2 | [^CGB]3 [CGA] [CE][CGB][CGA][CE] | [CDA]6 z2 | %8
w: ||||
 [Ec]3 c BBcB | [CA]4 [CE]2 z2 | [DE]3 E =FEDE | z4 C2[K:bass] z2 | D3 [DF] [FA][Gc][ce][_B^c] | %13
w: |||||
 [Bd]4 [GB]2 z2 | .G,2 G,[B,G] [CA][B,G][DB][DA] | [B,G]6 z2 | [Ec] [Ec]3 [DB] [DB]3 | %17
w: ||||
 [CA] [CA]3 [EG] [EG]3 | F3 A BB[G^c][GA] | d2- [Gd-]2 [Ad]2 z2 | [Bd]3 [GB] [^Ge][Gd]cB | %21
w: ||||
 A4 z4[K:bass] |[M:17/16] D/-D/-D-<D[K:treble]GAGB3/2A |[M:4/4] [B,G]6 z2 |] %24
w: |||
V:2
 z B,,D,G, z E,^D,E, | z B,,D,G, [G,,D,]G,D,G,, | C,E,G,G, C,E,E,C, | z D,^C,D, E,D,C,G,, | %4
 D,F,A,D D,F,A,D | G,B,DB, G,DB,G, | [A,,E,]^C,E,A, A,,C,E,A, | [D,F,]=F,^F,G, D,2 z2 | %8
 [A,,A,]E,A,[A,E] [E,^G,D][E,G,D][E,G,D][E,G,D] | A,,C,E,A, A,,C,E,A, | %10
 E,,F,^G,[F,D] [E,G,D][E,G,D][E,G,][E,G,D] | A,,C,E,A, E,C, z2 | D,F,A,C D,F,A,D | %13
 G,B,[K:treble]DG G,DB,[K:bass]G, | z D,B,,D, z D,[D,F,]D, | z D,^C,D, G,,2 z2 | %16
 [A,,A,] [A,,A,]3 [E,^G,] [E,G,]3 | [A,,A,] [A,,A,]3 [^C,A,] [C,A,]3 | %18
 [D,A,D]3 [F,A,D] [G,D][G,D][E,A,][E,A,] | A,2 B,2 C2 z2 | G,,B,,D,G, [E,B,][E,B,][E,^G,E][G,E] | %21
 .[A,C]2 z2 z4 |[M:17/16] [D,B,]/-[D,B,]/-[D,B,]-<[D,B,][D,G,B,][D,F,C][D,G,B,][D,F,D]3/2[D,F,C] | %23
[M:4/4] [G,,G,]6 z2 |] %24
V:3
 G,,4 G,,4 | G,,4 z4 | x8 | G,,4 z4 | x8 | x8 | x8 | x8 | x8 | x8 | x8 | x8 | x8 | %13
 x2[K:treble] x5[K:bass] x | G,,4 D,,4 | G,,4 z4 | x8 | x8 | x8 | D,6 z2 | x8 | %21
 E-[A,E-][E,E-][C,E] A,,A,, z2 |[M:17/16] x17/2 |[M:4/4] x8 |] %24
V:4
 x8 | x8 | x8 | .G,2 z2 z4 | x8 | x8 | .B,2 z2 z4 | z4 A,2 z2 | x8 | x8 | x8 | %11
 C4 z[K:bass] A,E,C, | x8 | x8 | [B,D]4 z4 | z4 G,2 z2 | x8 | x8 | x8 | F2 z2 z4 | x8 | %21
 z C z2 [Ec]2[K:bass] B,,C, |[M:17/16] x3[K:treble] x11/2 |[M:4/4] x8 |] %24

